X:1
T:Malibu, 87.87 D
T:Malibu, 87.87 D
T:Rand L. Newton, 1899
T:Public Domain Courtesy of the Cyber Hymnal™
C:Rand L. Newton, 1899
Z:Public Domain
Z:Courtesy of the Cyber Hymnal™
%%score 1 ( 2 3 )
L:1/8
Q:1/4=110
M:4/4
K:Bb
V:1 treble 
V:2 bass 
V:3 bass 
V:1
 [DF]2 [B,D]2 [Fd]3 [Ec] | [DB]2 [B,D]2 [FA]2 [EG]2 | [DF]3 [EG] [DF]2 [A,C]2 | %3
 [DF]2 [CE]2 [B,D]4 | [DF]2 [B,D]2 [Fd]3 [Ec] | [DB]2 [B,D]2 [FA]2 [EG]2 | [DF]3 [EG] [DF]2 [DB]2 | %7
 [EB]2 [EA]2 [DB]4 | [Ac]2 [^G=B]2 [Ac]2 [EF]2 | [Fd]2 [=E^c]2 [Fd]2 [DB]2 | %10
 [EG]3 [EA] [DB]2 [Fd]2 | [Ec]2 [D=B]2 [Ec]4 | [DF]2 [B,D]2 [Fd]3 [Ec] | [DB]2 [B,D]2 [FA]2 [EG]2 | %14
 [DF]3 [EG] [DF]2 [DB]2 | [EB]2 [EA]2 [DB]4 |] %16
V:2
 [B,,B,]2 [B,,F,]2 [B,,B,]3 [B,,B,] | [B,,F,]2 [B,,B,]2 [E,B,]2 [E,B,]2 | %2
 [F,B,]3 [F,B,] [F,B,]2 [F,C]2 | [F,B,]2 F,2 [B,,F,]4 | [B,,B,]2 [B,,F,]2 [B,,B,]3 [B,,B,] | %5
 [B,,F,]2 [B,,B,]2 [E,B,]2 [E,B,]2 | [F,B,]3 [F,B,] [F,B,]2 F,2 | [F,C]2 [F,C]2 [B,,B,]4 | %8
 F,2 F,2 F,2 [F,A,]2 | [B,,B,]2 [B,,B,]2 [B,,B,]2 [B,,F,]2 | E,3 [D,F,] [B,,F,]2 [B,,B,]2 | %11
 [F,A,]2 [F,^G,]2 [F,A,]4 | B,2 [B,,F,]2 [B,,B,]3 [B,,B,] | [B,,F,]2 [B,,B,]2 [E,B,]2 [E,B,]2 | %14
 [F,B,]3 [F,B,] [F,B,]2 F,2 | [F,C]2 [F,C]2 [B,,B,]4 |] %16
V:3
 x8 | x8 | x8 | x2 F,2 x4 | x8 | x8 | x6 F,2 | x8 | F,2 F,2 F,2 x2 | x8 | E,3 x5 | x8 | B,2 x6 | %13
 x8 | x6 F,2 | x8 |] %16

